X:1
T:Hopfavogl
C:traditionell
R:Zwiefach
%%textfont Helvetica-Narrow 10pt
%%begintext align
S:Kopiertes Notenmaterial von Michael Kellner, Regensburg
%%endtext 
F:http://simonwascher.info/
Z:abc transcription Simon Wascher
M:3 4/4
L:1/4
K:G
D |\
B>cB | A2B/d/ | cBAB/d/ | cBAB/d/ |
B>cB | A2B/d/ | cBAB/d/cBA :|
|: D |\
F>AA | A2F | GAB2 | GAB2 |
d>cA | B2B/d/ | cABB/d/ |1 cAB :|\
                        [2  de/f/g ||
%%wordsfont Times-Italic 11pt
W:aus Simon Waschers TradArchiv
